icons/bookmark-minus.svg

<svg width="24" height="24" viewBox="0 0 24 24" fill="none" xmlns="http://www.w3.org/2000/svg">
<path fill-rule="evenodd" clip-rule="evenodd" d="M8 3.62756C6.48579 3.62756 5.25 4.86335 5.25 6.37756V18.5776C5.25 19.9114 6.63608 20.835 7.8721 20.1287L7.94791 20.0854L10.9469 17.2864C10.9805 17.2746 11.0195 17.2746 11.0531 17.2864L14.0521 20.0854L14.1279 20.1287C15.3639 20.835 16.75 19.9114 16.75 18.5776V12.3776C16.75 11.9634 16.4142 11.6276 16 11.6276C15.5858 11.6276 15.25 11.9634 15.25 12.3776V18.5776C15.25 18.7165 15.1859 18.7983 15.1225 18.8369C15.075 18.8658 15.0112 18.8818 14.9305 18.8534L11.967 16.0875L11.916 16.0535C11.3641 15.6856 10.6359 15.6856 10.084 16.0535L10.033 16.0875L7.0695 18.8534C6.98885 18.8818 6.92501 18.8658 6.87746 18.8369C6.81411 18.7983 6.75 18.7165 6.75 18.5776V6.37756C6.75 5.69178 7.31421 5.12756 8 5.12756H11C11.4142 5.12756 11.75 4.79178 11.75 4.37756C11.75 3.96335 11.4142 3.62756 11 3.62756H8ZM14 6.62756C13.5858 6.62756 13.25 6.96335 13.25 7.37756C13.25 7.79178 13.5858 8.12756 14 8.12756H18C18.4142 8.12756 18.75 7.79178 18.75 7.37756C18.75 6.96335 18.4142 6.62756 18 6.62756H14Z" fill="black"/>
</svg>

<svg xmlns="http://www.w3.org/2000/svg" fill="none" viewBox="0 0 24 24">
  <path fill="#000" fill-rule="evenodd" d="M8 3.628a2.756 2.756 0 0 0-2.75 2.75v12.2c0 1.333 1.386 2.257 2.622 1.55l.076-.043 2.999-2.799a.164.164 0 0 1 .106 0l3 2.8.075.043c1.236.706 2.622-.218 2.622-1.551v-6.2a.75.75 0 0 0-1.5 0v6.2c0 .139-.064.22-.127.259a.216.216 0 0 1-.192.016l-2.964-2.766-.051-.034a1.658 1.658 0 0 0-1.832 0l-.051.034-2.963 2.766a.216.216 0 0 1-.193-.016c-.063-.039-.127-.12-.127-.26v-12.2c0-.685.564-1.25 1.25-1.25h3a.75.75 0 0 0 0-1.5H8Zm6 3a.75.75 0 0 0 0 1.5h4a.75.75 0 0 0 0-1.5h-4Z" clip-rule="evenodd"/>
</svg>
